icons/chat-quote-fill.svg

<svg width="24" height="24" fill="none" xmlns="http://www.w3.org/2000/svg"><g clip-path="url(#a)"><path d="M21 3a1 1 0 0 1 1 1v14a1 1 0 0 1-1 1H6.455L2 22.5V4a1 1 0 0 1 1-1h18ZM10.962 8.1l-.447-.688C8.728 8.187 7.5 9.755 7.5 11.505c0 .995.277 1.609.792 2.156.324.344.837.589 1.374.589a1.75 1.75 0 0 0 1.75-1.75c0-.92-.711-1.661-1.614-1.745a2.07 2.07 0 0 0-.479.01v-.092c.006-.422.092-1.633 1.454-2.466l.185-.107-.447-.688.447.688Zm4.553-.688c-1.787.775-3.015 2.343-3.015 4.093 0 .995.277 1.609.792 2.156.324.344.837.589 1.374.589a1.75 1.75 0 0 0 1.75-1.75c0-.92-.711-1.661-1.614-1.745a2.07 2.07 0 0 0-.479.01c0-.313-.029-1.762 1.639-2.665l-.447-.688Z" /></g><defs><clipPath id="a"><path fill="#fff" d="M0 0h24v24H0z"/></clipPath></defs></svg>

<svg xmlns="http://www.w3.org/2000/svg" width="24" height="24" fill="none"><g clip-path="url(#a)"><g><path fill="#121212" d="M21 3C21.552 3 22 3.448 22 4V18C22 18.552 21.552 19 21 19H6.455L2 22.5V4C2 3.448 2.448 3 3 3H21ZM10.962 8.1L10.515 7.412C8.728 8.187 7.5 9.755 7.5 11.505C7.5 12.5 7.777 13.114 8.292 13.661C8.616 14.005 9.129 14.25 9.666 14.25C10.632 14.25 11.416 13.466 11.416 12.5C11.416 11.58 10.705 10.839 9.802 10.755C9.642 10.74 9.478 10.743 9.323 10.765V10.673C9.329 10.251 9.415 9.04 10.777 8.207L10.962 8.1L10.515 7.412L10.962 8.1ZM15.515 7.412C13.728 8.187 12.5 9.755 12.5 11.505C12.5 12.5 12.777 13.114 13.292 13.661C13.616 14.005 14.129 14.25 14.666 14.25C15.632 14.25 16.416 13.466 16.416 12.5C16.416 11.58 15.705 10.839 14.802 10.755C14.642 10.74 14.478 10.743 14.323 10.765C14.323 10.452 14.294 9.003 15.962 8.1L15.515 7.412Z"/></g></g><defs><clipPath id="a"><rect width="24" height="24" fill="white"/></clipPath></defs></svg>
